packages/core/src/svgs/tokens/branded/SMI.svg

<svg width="24" height="24" viewBox="0 0 24 24" fill="none" xmlns="http://www.w3.org/2000/svg">
<path d="M2.58765 16.2104V15.881L3.89358 15.3987C4.02299 15.3516 4.0583 15.2633 4.00535 15.1398C3.26402 13.4751 3.05267 11.6226 3.39994 9.8337C3.74721 8.04472 4.63629 6.40588 5.9466 5.1394C7.18253 3.91662 8.76327 3.10163 10.4762 2.80401C12.3292 2.48047 14.1587 2.76283 15.9588 3.65698C17.8313 4.59803 19.2986 6.18661 20.0884 8.12776C20.1589 8.28659 20.2001 8.2807 20.2001 8.09835V4.12171C20.2001 4.00406 20.1471 3.90405 20.0472 3.83935C19.4413 3.45109 19.3354 2.99226 19.7294 2.45105C20.1296 1.91574 20.5707 1.85691 21.0589 2.27458C21.4002 2.56283 21.4943 2.93932 21.3413 3.39228C21.3103 3.48497 21.2532 3.56669 21.1766 3.62757L20.8824 3.86876C20.837 3.9028 20.8005 3.94733 20.7759 3.99853C20.7513 4.04974 20.7394 4.10613 20.7413 4.16288L20.7531 11.4574C20.7531 12.7573 20.4766 14.0045 19.9237 15.1987C19.8766 15.2986 19.906 15.3693 20.0001 15.4105L21.0707 15.8339C21.3649 15.9515 21.4236 16.1458 21.2766 16.4222C20.319 18.1776 18.8937 19.6335 17.1588 20.6283C15.5596 21.5518 13.7404 22.0253 11.8939 21.999C10.0114 21.9812 8.26434 21.493 6.65252 20.5282C4.92651 19.4898 3.52006 17.9959 2.58765 16.2104ZM20.8824 2.9805C20.8824 2.72754 20.7531 2.604 20.5061 2.604C20.2531 2.604 20.1296 2.72754 20.1296 2.9805C20.1296 3.23344 20.2531 3.35697 20.5061 3.35697C20.7531 3.35697 20.8767 3.23344 20.8767 2.9805H20.8824ZM11.0938 20.1988C8.27023 19.9458 6.03485 18.5341 4.41125 15.9692C4.34654 15.8634 4.25242 15.8339 4.13476 15.8751L3.41708 16.1517C3.29355 16.1986 3.26415 16.281 3.33473 16.3928C5.29364 19.7283 8.15257 21.4107 11.8998 21.44C15.6411 21.4636 18.5295 19.8341 20.553 16.5457C20.6413 16.4045 20.6119 16.2928 20.459 16.2222L19.906 15.9574C19.7531 15.8869 19.6236 15.9163 19.5295 16.0575C17.4118 19.14 14.594 20.5223 11.0938 20.1988Z" fill="#00A59D"/>
<path d="M13.8348 3.86288L10.7992 3.68053C10.4286 3.65699 10.4227 3.60994 10.7876 3.53346C11.9002 3.32799 13.0477 3.42344 14.1112 3.80994C14.2054 3.84524 14.2111 3.88642 14.123 3.93936C14.0818 3.96289 14.0406 3.96289 14.0052 3.93347C13.956 3.89106 13.8938 3.86623 13.8289 3.86288H13.8348Z" fill="#F0F3FA"/>
<path d="M18.1292 14.4339C17.5253 14.3608 16.9127 14.4119 16.329 14.5839C15.7454 14.7557 15.2029 15.0451 14.735 15.4339C14.6409 15.5045 14.5762 15.4869 14.535 15.3693C14.4313 14.97 14.2397 14.599 13.9739 14.2834C13.7083 13.9679 13.3753 13.7159 12.9996 13.5457C12.6249 13.3691 12.2109 13.292 11.7978 13.3219C11.3846 13.3518 10.9862 13.4876 10.6407 13.7163C9.9935 14.102 9.48028 14.6768 9.17006 15.3634C9.11125 15.481 9.04653 15.4928 8.9583 15.4105C8.50782 14.9894 7.96261 14.683 7.36875 14.5172C6.7749 14.3512 6.14984 14.3308 5.54639 14.4575C5.66405 13.1457 6.00523 11.8808 6.56408 10.6691C6.58568 10.6256 6.59836 10.5781 6.6014 10.5296C6.60443 10.4812 6.59773 10.4326 6.58173 10.3867C5.90523 8.38072 5.69934 6.78654 5.95817 5.61002C6.04052 5.23353 6.25818 5.11588 6.61702 5.25707C7.69354 5.66885 8.65829 6.44535 9.51131 7.58068C9.57596 7.66893 9.65831 7.69834 9.76428 7.66304C11.2172 7.17479 12.682 7.19244 14.1585 7.73952C14.2526 7.77481 14.3291 7.75128 14.3879 7.66893C15.3762 6.31592 16.4174 5.49825 17.5058 5.23353C17.7704 5.16883 17.9351 5.26883 17.994 5.54532C18.2411 6.70418 18.0234 8.38661 17.3351 10.5867C17.3051 10.6836 17.3113 10.7882 17.3527 10.8809C17.7559 11.8908 18.0268 12.9486 18.1587 14.028C18.1881 14.2163 18.1763 14.3515 18.1292 14.4398V14.4339Z" fill="#252228"/>
<path d="M6.91115 6.41006C7.65236 6.75712 8.31121 7.25126 8.89358 7.90423C8.96417 7.9807 8.95241 8.04542 8.86418 8.10424C8.24118 8.48478 7.69944 8.98456 7.26999 9.57484C7.20528 9.6631 7.15233 9.6572 7.10528 9.55727C6.69115 8.6005 6.55654 7.54603 6.71703 6.51594C6.74055 6.3983 6.80527 6.36299 6.91115 6.41593V6.41006ZM16.7587 9.63963C16.7175 9.73956 16.6645 9.74546 16.5997 9.6572C16.1686 9.04627 15.6134 8.53312 14.9703 8.1513C14.8761 8.09247 14.8645 8.02188 14.9409 7.93952C15.5078 7.31105 16.1859 6.79256 16.9409 6.41006C17.094 6.3277 17.1762 6.37476 17.2057 6.55123C17.3465 7.60223 17.1917 8.67168 16.7587 9.63963ZM8.45827 11.3808C8.29945 11.3808 8.22297 11.3043 8.21709 11.1455V11.0161C8.2112 10.4926 8.45827 10.2278 8.96417 10.2278H9.03476C9.54068 10.2278 9.79365 10.4808 9.79955 11.0044V11.1337C9.79955 11.2927 9.72296 11.3691 9.56415 11.3691L8.45827 11.3808ZM14.0409 11.3691C13.882 11.3691 13.8055 11.2868 13.8055 11.1279V10.9749C13.8173 10.4691 14.0703 10.222 14.5644 10.2278H14.635C15.1291 10.2396 15.3762 10.4985 15.3644 11.0044V11.1573C15.3644 11.3161 15.2762 11.3926 15.1173 11.3926L14.0409 11.3691ZM8.20533 11.8162C9.25242 12.1691 9.94066 12.6161 10.2642 13.1398C10.3465 13.275 10.3113 13.3516 10.1524 13.3691C9.40973 13.4228 8.66895 13.2418 8.03473 12.8515C7.78177 12.7103 7.69941 12.4397 7.79942 12.0339C7.85825 11.8162 7.99355 11.7397 8.2112 11.8162H8.20533ZM15.5115 12.8809C14.7938 13.2927 14.0937 13.4515 13.4055 13.3516C13.282 13.3398 13.2526 13.2809 13.3232 13.175C13.5746 12.8047 13.9017 12.4922 14.283 12.2579C14.6643 12.0236 15.0911 11.873 15.535 11.8162C15.6526 11.7926 15.7292 11.8455 15.7704 11.9573C15.9115 12.3986 15.8232 12.7044 15.5115 12.8809ZM18.1292 14.4339C18.194 14.475 18.2116 14.5515 18.1822 14.6693C17.5174 16.9046 15.7527 18.387 12.882 19.1047C12.2601 19.2657 11.6066 19.2597 10.9878 19.087C9.34069 18.6281 7.98766 17.9281 6.92879 16.9987C6.2019 16.326 5.71619 15.4331 5.54639 14.4575C6.14984 14.3308 6.7749 14.3512 7.36875 14.5172C7.96261 14.683 8.50782 14.9894 8.9583 15.4105C9.04653 15.4928 9.11712 15.481 9.16419 15.3693C9.47342 14.6805 9.98678 14.1035 10.6348 13.7163C10.981 13.4866 11.3805 13.3502 11.7948 13.3203C12.2092 13.2903 12.6241 13.368 12.9996 13.5457C13.3753 13.7159 13.7083 13.9679 13.9739 14.2834C14.2397 14.599 14.4313 14.97 14.535 15.3693C14.5762 15.4869 14.6409 15.5045 14.735 15.428C15.2034 15.0403 15.7459 14.752 16.3296 14.581C16.9132 14.4101 17.5257 14.36 18.1292 14.4339Z" fill="#F0F3FA"/>
<path d="M12.188 15.8398C11.9526 15.9811 11.9291 16.1517 12.1114 16.3517C12.3115 16.5869 12.5468 16.6458 12.8173 16.5516C12.893 16.5239 12.9557 16.4696 12.9938 16.3987C13.0527 16.2928 13.0997 16.1751 13.1292 16.0575C13.1586 15.9399 13.2291 15.881 13.3467 15.881C13.3575 15.8822 13.3677 15.8862 13.3763 15.8928C13.435 15.9281 13.4703 15.9811 13.4703 16.0634C13.4468 16.4575 13.2703 16.7339 12.9409 16.887C12.5998 17.0458 12.282 16.9928 11.9821 16.7223C11.9114 16.6634 11.8409 16.6575 11.7703 16.7105C11.0879 17.1811 10.5702 17.0222 10.2114 16.2281C10.1644 16.1163 10.1819 16.0222 10.2761 15.9399L10.3407 15.8928C10.4173 15.8339 10.4702 15.8398 10.5055 15.9281L10.682 16.3751C10.7232 16.4693 10.7879 16.528 10.882 16.5516C11.1349 16.6399 11.3526 16.5869 11.5467 16.3987C11.7644 16.1869 11.7467 15.9927 11.488 15.8222C11.3526 15.7333 11.2409 15.6131 11.162 15.4718C11.0832 15.3304 11.0395 15.1722 11.035 15.0103C11.0232 14.8751 11.0938 14.8045 11.2291 14.8045H12.4526C12.6173 14.8045 12.6879 14.8809 12.6644 15.0399C12.6555 15.201 12.6081 15.3578 12.5263 15.4969C12.4444 15.6361 12.3305 15.7538 12.1938 15.8398H12.188Z" fill="#252228"/>
</svg>

<svg xmlns="http://www.w3.org/2000/svg" width="24" height="24" fill="none" viewBox="0 0 24 24">
    <path fill="#00A59D" d="M2.588 16.21v-.329l1.306-.482q.192-.072.111-.26a8.88 8.88 0 0 1 1.942-10 8.5 8.5 0 0 1 4.53-2.335q2.78-.487 5.482.853a8.65 8.65 0 0 1 4.13 4.47c.07.16.111.154.111-.029V4.122a.33.33 0 0 0-.153-.283c-.606-.388-.712-.847-.318-1.388q.599-.803 1.33-.176c.341.288.435.664.282 1.117a.5.5 0 0 1-.164.236l-.295.24a.35.35 0 0 0-.14.295l.011 7.294q0 1.95-.83 3.742c-.046.1-.017.17.077.212l1.07.423c.295.117.354.312.207.588a10.8 10.8 0 0 1-4.118 4.206A10.24 10.24 0 0 1 11.894 22a10.2 10.2 0 0 1-5.241-1.47 10.96 10.96 0 0 1-4.065-4.319M20.882 2.98c0-.252-.129-.376-.376-.376q-.378-.001-.376.377-.002.377.376.376.37.001.37-.377zM11.094 20.2c-2.824-.253-5.06-1.665-6.683-4.23-.064-.106-.159-.135-.276-.094l-.718.277q-.187.072-.082.24c1.959 3.336 4.818 5.019 8.565 5.048 3.741.024 6.63-1.606 8.653-4.894.088-.142.059-.253-.094-.324l-.553-.265c-.153-.07-.282-.04-.377.1-2.117 3.083-4.935 4.465-8.435 4.142"/>
    <path fill="#F0F3FA" d="m13.835 3.863-3.036-.182q-.557-.034-.011-.148a6.35 6.35 0 0 1 3.323.277q.143.05.012.13-.063.036-.118-.007a.3.3 0 0 0-.176-.07z"/>
    <path fill="#252228" d="M18.13 14.434a4.47 4.47 0 0 0-3.395 1c-.094.07-.159.053-.2-.065A2.76 2.76 0 0 0 13 13.546a2.41 2.41 0 0 0-2.36.17 3.7 3.7 0 0 0-1.47 1.647c-.059.118-.123.13-.212.048a3.84 3.84 0 0 0-3.412-.953 11.4 11.4 0 0 1 1.018-3.789.37.37 0 0 0 .018-.282q-1.014-3.01-.624-4.777c.083-.376.3-.494.659-.353q1.615.619 2.894 2.324.096.133.253.082c1.453-.488 2.918-.47 4.395.077q.14.052.229-.071c.988-1.353 2.03-2.17 3.118-2.435.264-.065.43.035.488.311.247 1.16.03 2.842-.659 5.042a.42.42 0 0 0 .018.294c.403 1.01.674 2.068.806 3.147.03.188.017.323-.03.412z"/>
    <path fill="#F0F3FA" d="M6.911 6.41c.741.347 1.4.841 1.983 1.494q.104.114-.03.2c-.623.38-1.165.88-1.594 1.47q-.096.134-.165-.017a5.5 5.5 0 0 1-.388-3.041q.035-.178.194-.1zm9.848 3.23q-.062.15-.16.017a5.3 5.3 0 0 0-1.629-1.506q-.143-.089-.03-.211a6.9 6.9 0 0 1 2-1.53c.154-.082.236-.035.266.141a5.7 5.7 0 0 1-.447 3.089m-8.3 1.74c-.16 0-.236-.076-.242-.235v-.129q-.01-.786.747-.788h.07c.507 0 .76.253.766.776v.13q.001.237-.236.235zm5.582-.01q-.237-.002-.236-.242v-.153q.018-.757.76-.747h.07c.494.012.741.27.73.776v.153c0 .16-.089.236-.248.236zm-5.836.446c1.047.353 1.736.8 2.06 1.324q.124.203-.113.23a3.55 3.55 0 0 1-2.117-.518c-.253-.142-.336-.412-.236-.818.06-.218.195-.294.412-.218zm7.307 1.065q-1.075.619-2.107.47-.186-.017-.082-.176a3.16 3.16 0 0 1 2.212-1.359c.118-.023.194.03.235.141.142.442.053.747-.258.924m2.617 1.553q.098.06.053.235c-.665 2.236-2.43 3.718-5.3 4.436a3.65 3.65 0 0 1-1.894-.018c-1.647-.459-3-1.159-4.06-2.088a4.52 4.52 0 0 1-1.382-2.541 3.84 3.84 0 0 1 3.412.953q.135.125.206-.042a3.7 3.7 0 0 1 1.47-1.653 2.41 2.41 0 0 1 2.366-.17 2.77 2.77 0 0 1 1.535 1.823q.06.176.2.059a4.47 4.47 0 0 1 3.394-.994"/>
    <path fill="#252228" d="M12.188 15.84q-.351.212-.077.512c.2.235.436.294.706.2a.33.33 0 0 0 .177-.153 1.4 1.4 0 0 0 .135-.341q.043-.177.218-.177a.1.1 0 0 1 .03.012.18.18 0 0 1 .093.17q-.035.593-.53.824-.509.24-.958-.165-.105-.09-.212-.012-1.022.708-1.559-.482c-.047-.112-.03-.206.065-.288l.065-.047c.076-.06.13-.053.165.035l.176.447a.29.29 0 0 0 .2.177c.253.088.47.035.665-.153q.327-.32-.059-.577a1 1 0 0 1-.453-.812c-.012-.135.059-.205.194-.205h1.224q.246-.002.211.235a1.01 1.01 0 0 1-.47.8z"/>
</svg>
